svg/subscriptions.svg

<?xml version="1.0" encoding="UTF-8" standalone="no"?>
<svg
   width="25"
   height="25"
   viewBox="0 0 25 25"
   fill="none"
   version="1.1"
   id="svg2"
   sodipodi:docname="subscriptions.svg"
   inkscape:version="1.4 (86a8ad7, 2024-10-11)"
   xmlns:inkscape="http://www.inkscape.org/namespaces/inkscape"
   xmlns:sodipodi="http://sodipodi.sourceforge.net/DTD/sodipodi-0.dtd"
   xmlns="http://www.w3.org/2000/svg"
   xmlns:svg="http://www.w3.org/2000/svg">
  <defs
     id="defs2" />
  <sodipodi:namedview
     id="namedview2"
     pagecolor="#ffffff"
     bordercolor="#000000"
     borderopacity="0.25"
     inkscape:showpageshadow="2"
     inkscape:pageopacity="0.0"
     inkscape:pagecheckerboard="0"
     inkscape:deskcolor="#d1d1d1"
     inkscape:zoom="31.32"
     inkscape:cx="12.5"
     inkscape:cy="12.5"
     inkscape:window-width="1920"
     inkscape:window-height="1001"
     inkscape:window-x="-9"
     inkscape:window-y="-9"
     inkscape:window-maximized="1"
     inkscape:current-layer="svg2" />
  <g
     id="g2"
     transform="translate(-0.10388988,0.39329523)">
    <path
       fill-rule="evenodd"
       clip-rule="evenodd"
       d="M 21.3298,8.36024 C 21.2731,8.35667 21.2114,8.35669 21.1475,8.35671 l -0.016,10e-6 H 18.623 c -2.0677,0 -3.8369,1.62756 -3.8369,3.74998 0,2.1224 1.7692,3.75 3.8369,3.75 h 2.5085 0.016 c 0.0639,0 0.1256,10e-5 0.1823,-0.0035 0.8399,-0.0531 1.5826,-0.7103 1.6451,-1.6283 0.0041,-0.0602 0.004,-0.1251 0.004,-0.1852 V 14.0234 10.19 10.1737 c 0,-0.0601 10e-5,-0.125 -0.004,-0.18519 C 22.9124,9.07052 22.1697,8.41328 21.3298,8.36024 Z m -2.9292,4.74646 c 0.5323,0 0.9638,-0.4477 0.9638,-1 0,-0.5523 -0.4315,-1 -0.9638,-1 -0.5323,0 -0.9639,0.4477 -0.9639,1 0,0.5523 0.4316,1 0.9639,1 z"
       fill="#2d2d2d"
       id="path1" />
    <path
       fill-rule="evenodd"
       clip-rule="evenodd"
       d="m 21.1468,17.3567 c 0.1491,-0.0039 0.262,0.1342 0.2215,0.2778 -0.2007,0.7124 -0.5194,1.3197 -1.0306,1.831 -0.7484,0.7483 -1.6974,1.0804 -2.8698,1.2381 -1.1392,0.1531 -2.5948,0.1531 -4.4326,0.1531 h -2.1128 c -1.83779,0 -3.29343,0 -4.43264,-0.1531 C 5.31744,20.5459 4.36849,20.2138 3.62012,19.4655 2.87176,18.7171 2.53964,17.7681 2.38202,16.5957 2.22885,15.4565 2.22886,14.0009 2.22888,12.1631 V 12.0503 C 2.22886,10.2125 2.22885,8.7569 2.38202,7.61769 2.53964,6.44527 2.87176,5.49632 3.62012,4.74795 4.36849,3.99959 5.31744,3.66747 6.48986,3.50985 7.62907,3.35668 9.0847,3.35669 10.9225,3.35671 h 2.1128 c 1.8378,-2e-5 3.2934,-3e-5 4.4326,0.15314 1.1724,0.15762 2.1214,0.48974 2.8698,1.2381 0.5112,0.51128 0.8298,1.1185 1.0306,1.83094 0.0405,0.14357 -0.0724,0.28169 -0.2215,0.27782 l -2.5239,1e-5 c -2.8366,0 -5.3369,2.24089 -5.3369,5.24998 0,3.0091 2.5003,5.25 5.3369,5.25 z m -13.91792,-1.5 c -0.41421,0 -0.75,-0.3358 -0.75,-0.75 V 9.10671 c 0,-0.41421 0.33579,-0.75 0.75,-0.75 0.41421,0 0.75,0.33579 0.75,0.75 v 5.99999 c 0,0.4142 -0.33579,0.75 -0.75,0.75 z"
       fill="#2d2d2d"
       id="path2" />
  </g>
</svg>

<svg width="25" height="25" viewBox="0 0 25 25" fill="none" xmlns="http://www.w3.org/2000/svg">
<path fill-rule="evenodd" clip-rule="evenodd" d="M21.3298 8.36024C21.2731 8.35667 21.2114 8.35669 21.1475 8.35671L21.1315 8.35672H18.623C16.5553 8.35672 14.7861 9.98428 14.7861 12.1067C14.7861 14.2291 16.5553 15.8567 18.623 15.8567H21.1315H21.1475C21.2114 15.8567 21.2731 15.8568 21.3298 15.8532C22.1697 15.8001 22.9124 15.1429 22.9749 14.2249C22.979 14.1647 22.9789 14.0998 22.9789 14.0397V14.0234V10.19V10.1737C22.9789 10.1136 22.979 10.0487 22.9749 9.98851C22.9124 9.07052 22.1697 8.41328 21.3298 8.36024ZM18.4006 13.1067C18.9329 13.1067 19.3644 12.659 19.3644 12.1067C19.3644 11.5544 18.9329 11.1067 18.4006 11.1067C17.8683 11.1067 17.4367 11.5544 17.4367 12.1067C17.4367 12.659 17.8683 13.1067 18.4006 13.1067Z" fill="#2D2D2D"/>
<path fill-rule="evenodd" clip-rule="evenodd" d="M21.1468 17.3567C21.2959 17.3528 21.4088 17.4909 21.3683 17.6345C21.1676 18.3469 20.8489 18.9542 20.3377 19.4655C19.5893 20.2138 18.6403 20.5459 17.4679 20.7036C16.3287 20.8567 14.8731 20.8567 13.0353 20.8567H10.9225C9.08471 20.8567 7.62907 20.8567 6.48986 20.7036C5.31744 20.5459 4.36849 20.2138 3.62012 19.4655C2.87176 18.7171 2.53964 17.7681 2.38202 16.5957C2.22885 15.4565 2.22886 14.0009 2.22888 12.1631V12.0503C2.22886 10.2125 2.22885 8.7569 2.38202 7.61769C2.53964 6.44527 2.87176 5.49632 3.62012 4.74795C4.36849 3.99959 5.31744 3.66747 6.48986 3.50985C7.62907 3.35668 9.0847 3.35669 10.9225 3.35671H13.0353C14.8731 3.35669 16.3287 3.35668 17.4679 3.50985C18.6403 3.66747 19.5893 3.99959 20.3377 4.74795C20.8489 5.25923 21.1675 5.86645 21.3683 6.57889C21.4088 6.72246 21.2959 6.86058 21.1468 6.85671L18.6229 6.85672C15.7863 6.85672 13.286 9.09761 13.286 12.1067C13.286 15.1158 15.7863 17.3567 18.6229 17.3567H21.1468ZM7.22888 15.8567C6.81467 15.8567 6.47888 15.5209 6.47888 15.1067V9.10671C6.47888 8.6925 6.81467 8.35671 7.22888 8.35671C7.64309 8.35671 7.97888 8.6925 7.97888 9.10671V15.1067C7.97888 15.5209 7.64309 15.8567 7.22888 15.8567Z" fill="#2D2D2D"/>
</svg>
